X:46
T: HOTTE HOTTE REITERPFERD
N: K0363
O: Europa, Mitteleuropa, Deutschland, Erfurt, Stotternheim
R: Kinder -, Schaukel -, Knierreiter -, Spiel - Lied
M: 2/4
L: 1/8
K: G
 | GGBB | ddBB |
GGBB | ddBz |
GABc | ddBz |
GABc | ddBz |
GABc | d2B2 |
GABc | d2B2 |
ddBG | eed2 |
ccBB | AAGz |
d2BA | G2z2

@@@ Tune index: 7383
